X: 26928
T: Miss Ann MacCormack
R: reel
M: 4/4
K: Bdorian
|:FBB/B/B dBfB|bagf [df]afd|EAA/A/A cAeA|agfe caec|
FBB/B/B dBfB|bagf dbfd|bgaf gefd|1 caec B/B/BB2:|2 caec B/B/Bga||
|:bBB/B/B FBdf|bagf dbfg|aAA/A/A EAce|agfe caec|
bBB/B/B FBdf|bagf dbfd|bgaf gefd|1 caec B/B/Bga:|2 caec B/B/BB2||

